img/icons/phone-red.svg

<svg width="36" height="36" viewBox="0 0 36 36" fill="none" xmlns="http://www.w3.org/2000/svg">
<path fill-rule="evenodd" clip-rule="evenodd" d="M9.44687 6.29525L9.44788 6.29651L9.44687 6.29525ZM9.51137 6.39654L12.5182 11.1343C12.1548 11.4755 11.7585 11.8134 11.332 12.177C10.9654 12.4895 10.5765 12.8211 10.167 13.1901C9.15219 14.1047 8.95617 15.5756 9.61297 16.7203C13.0861 22.7735 17.8233 25.5279 19.943 26.5169C21.22 27.1126 22.6074 26.6425 23.3797 25.6689L25.4604 23.046C25.4604 23.046 25.4621 23.0446 25.4653 23.044C25.4685 23.0435 25.4742 23.044 25.4742 23.044C25.4742 23.044 25.4787 23.0451 25.4831 23.0477C26.6955 23.7888 28.387 24.7958 29.9408 25.6484C29.6617 27.3168 29.0207 28.2887 28.3139 28.8828C27.5718 29.5067 26.612 29.8351 25.5415 29.9537C23.4042 30.1903 21.2344 29.5483 20.7532 29.3918C20.2222 29.1229 17.3108 27.6053 14.2005 25.1461C10.9932 22.6102 7.77725 19.2306 6.54729 15.3545C5.6484 12.5217 5.98735 10.5283 6.69386 9.15331C7.37685 7.82407 8.4821 6.92187 9.51137 6.39654ZM8.42368 3.59251C9.84064 2.92696 11.3058 3.62088 11.9883 4.69626L15.1339 9.65269C15.7698 10.6547 15.8134 12.1195 14.7795 13.1229C14.3365 13.553 13.7201 14.0816 13.1464 14.5734C12.8316 14.8434 12.5296 15.1023 12.2763 15.3278C15.2655 20.4824 19.2618 22.8672 21.0795 23.7392L23.1028 21.1886C24.0581 19.9844 25.759 19.703 27.0543 20.4946C28.2525 21.227 29.9091 22.2127 31.4102 23.0357C32.4114 23.5847 33.1276 24.729 32.9247 26.021C32.5602 28.3415 31.6083 30.0316 30.2518 31.1721C28.9179 32.2934 27.329 32.7691 25.8735 32.9303C23.0105 33.2474 20.2722 32.3889 19.7722 32.2231C19.6456 32.1811 19.5405 32.1368 19.4276 32.08C18.8907 31.8099 15.7271 30.1763 12.3325 27.4923C8.97325 24.8362 5.18478 20.9941 3.68178 16.2575C2.57774 12.7783 2.90434 9.95721 4.01878 7.78827C5.11369 5.65735 6.88683 4.31436 8.42368 3.59251Z" fill="#E3000F"/>
<path fill-rule="evenodd" clip-rule="evenodd" d="M22.0658 3.13682C21.3115 2.79189 20.4194 3.12163 20.0733 3.87331C19.7272 4.625 20.0581 5.51398 20.8124 5.85891C24.302 7.4547 28.296 10.4549 30.1212 14.5949C30.455 15.3521 31.3415 15.6963 32.1013 15.3636C32.8612 15.031 33.2065 14.1475 32.8727 13.3903C30.6433 8.3332 25.931 4.90435 22.0658 3.13682ZM20.9533 8.44954C20.211 8.07967 19.3083 8.37951 18.9372 9.11924C18.5661 9.85898 18.8669 10.7585 19.6092 11.1284C21.0213 11.8319 21.9985 12.495 22.7876 13.2813C23.5766 14.0676 24.2419 15.0415 24.948 16.4487C25.3191 17.1884 26.2217 17.4882 26.964 17.1184C27.7063 16.7485 28.0072 15.849 27.636 15.1093C26.8394 13.5214 26.002 12.2491 24.9127 11.1635C23.8234 10.0779 22.5466 9.24345 20.9533 8.44954Z" fill="#E3000F"/>
</svg>

<svg width="36" height="36" fill="none" xmlns="http://www.w3.org/2000/svg"><path fill-rule="evenodd" clip-rule="evenodd" d="M9.447 6.295v.002-.002zm.064.102l3.007 4.737c-.363.341-.76.68-1.186 1.043a54.8 54.8 0 00-1.165 1.013 2.84 2.84 0 00-.554 3.53c3.473 6.053 8.21 8.808 10.33 9.797 1.277.596 2.664.125 3.437-.848l2.08-2.623.005-.002a.05.05 0 01.01 0l.008.004c1.212.74 2.904 1.748 4.458 2.6-.28 1.669-.92 2.64-1.627 3.235-.742.624-1.702.952-2.773 1.07-2.137.237-4.307-.405-4.788-.561-.53-.27-3.442-1.787-6.553-4.246-3.207-2.536-6.423-5.915-7.653-9.792-.899-2.832-.56-4.826.147-6.2.683-1.33 1.788-2.232 2.817-2.757zM8.424 3.593c1.417-.666 2.882.028 3.564 1.103l3.146 4.957c.636 1.002.68 2.466-.354 3.47-.444.43-1.06.959-1.634 1.45-.314.27-.616.53-.87.755 2.99 5.154 6.986 7.54 8.803 8.411l2.024-2.55a3.03 3.03 0 013.951-.694 113.73 113.73 0 004.356 2.54c1.001.55 1.718 1.694 1.515 2.986-.365 2.32-1.317 4.01-2.673 5.151-1.334 1.121-2.923 1.597-4.378 1.758-2.863.317-5.602-.541-6.102-.707a2.456 2.456 0 01-.344-.143c-.537-.27-3.7-1.904-7.096-4.588-3.359-2.656-7.147-6.498-8.65-11.235-1.104-3.479-.778-6.3.337-8.469 1.095-2.13 2.868-3.474 4.405-4.195zm13.642-.456a1.505 1.505 0 00-1.993.736 1.495 1.495 0 00.74 1.986c3.489 1.596 7.483 4.596 9.308 8.736a1.505 1.505 0 001.98.769 1.495 1.495 0 00.772-1.974c-2.23-5.057-6.942-8.486-10.807-10.253zM20.953 8.45a1.505 1.505 0 00-2.016.67c-.37.739-.07 1.639.672 2.008 1.412.704 2.39 1.367 3.179 2.153.789.787 1.454 1.76 2.16 3.168a1.505 1.505 0 002.016.67 1.495 1.495 0 00.672-2.01c-.797-1.588-1.634-2.86-2.723-3.945-1.09-1.086-2.366-1.92-3.96-2.714z" fill="#E3000F"/></svg>
